X: 523
T: Abbess, The
R: barndance
M: 4/4
K: Gmajor
|:B4 B3 c|d3 G G2 Bd|e2 e2- edcB|cBAG d2 GF|
E2 c2 A2 AF|D2 d2 BAGF|E2 cB ~A2 GF|1 G4 -GDGA:|2 G4 GABc||
d4 e3 d|cBAG d2 dc|BAGF EGcB|BAAB D2 GF|
E2 c2 A3 F|D2 d2 BAGF|E2 cB ~A2 GF|FG G2 GABc|
dGBd e2 ed|cBce ddef|gBfg e2 dB|[M:3/2] ABef d2 dc BAGF|
[M:4/4]
E2 c2 A3 F|D2 d2 BAGF|E2 cB ~A2 GF|FG G2- GDGA||
B2 BA B2 Bc|d6 Bd|e4 edcB|cBAG d2 GF|
E2 c2 A3 F|D2 d2 BAGF|E2 cB ~A2 GF|G2 G2 GDGA|
B2 BA B2 Bc|d8|z e3 edcB|cBAG d2 GF|
E2 c2 A3 F|D2 d2 BAGF|E2 cB ~A2 GF|G2 G2 GABc||
d4 e2 ed|cBAG d2 dc|BAGF EGcB|BAAB D2 GF|
E2 c2 A3 F|D2 d2 BAGF|E2 cB ~A2 GF|FGGF GABc|
dGBd e2 dB|cBce ddef|gBfg e2 dB|[M:3/2] ABef d2- dc BAGF|
[M:4/4]
E2 c2 A3 F|D2 d2 BAGF|E2 cB ~A2 GF|G2 G2 GDGA||
B4 B3 c|d6 Bd|e2 e2- edcB|cBAG d2 GF|
E2 c2 A3 F|D2 d2 BAGF|E2 cB ~A2 GF|G2 G2 GDGA|
zBBA B2 Bc|d6 Bd|e2 e2- edcB|cBAG d2 GF|
E2 c2 A3 F|D2 d2 BAGF|E2 cB ~A2 GF|G4 GABc||
d3 B e3 d|cBAG d2 dc|BAGF EGcB|BAAB D2 GF|
E2 c2 A2 AF|D2 d2 BAGF|E2 cB ~A2 GF|G2 G2 GABc|
dGBd e2 dB|cBce ddef|gBfg e2 dB|ABef d3 c|
BAGF E2 c2|A3 F D2 d2|BAGF E2 cB|~A2 GF G2 GF|G8||

